X: 8
T: Blue Bonnets Over The Border
R: jig
M: 6/8
L: 1/8
K: Amix
A>AA c2e|a>aa a2e|g>ag f<af|e>cA B2e|
A>AA c2e|a>aa a2e|f>ed c>de|f<ac B2A:|
|:A>ce e>ce|f>ed c>BA|A>ce f>ga|A>Bc B2A|
A>ce e>ce|f>ed c>BA|a>gf e>ce|f<ac B2A:|
|:d3 d3|d>fe d>BA|d>BB B>fg|a>gf f>ef|
d3 d3|d>fe d>BA|d>cB A>Bc|d>ef e2d:|
|:d>fa a>fd|a>gf f>ef|d>fa a>fd|d>ef f2e|
d>fa a>fd|a>gf f>ef|d>cB A>Bc|d>ef e2d:|


Tune 2402	Setting 20647

